X:1
T:Title
%%score { ( 1 3 5 6 ) | ( 2 4 ) }
L:1/8
M:2/4
K:Eb
V:1 treble nm="Grand Piano"
V:3 treble 
V:5 treble 
V:6 treble 
V:2 bass 
V:4 bass 
V:1
 z[Q:1/4=106] G G>A | A>G G>E | C4- | C2 z2 | D4 | F2 E>D | z2 G,2 | z z/ =E/ E>F | G>A G>F | z4 | %10
 z z/ =B/ A>G | G>A =B>c | z4 | z z/ c/ e>d | c4- | c2 z2 | B4- | B2 z2 | A4- | A2 z2 | G4- | %21
 G z z2 | G>B A>G | FA G>F | E>G F>E | DD D>F | FF F>A | AG G>=B | =B>d d>e | c4- |[M:1/8] c |] %31
V:2
 z4 | z4 | C,2 E,2 | z z/ E/ D>C | =B,,2 F,2 | D,2 [F,G,]2 | C,2 E,2 | C,2 [=E,G,]2 | %8
 C,2 [=E,G,]2 | F,2 C,2 | F,2 z2 | C,2 [F,A,]2 | z2 D,2- | D,2 z2 | C,2 E,2 | .C,>[K:treble]B d>c | %16
 B,,2 D,2 | .B,,>[K:treble]A A>A | F,2 A,2 | D,2 [A,B,]2 | C,2 E,2 | C,[K:treble]c B>A | %22
 C,2 [G,B,]2 | C,2 [F,A,]2 | C,2 [E,G,]2 | =B,,2 [F,G,]2- | [F,G,]2 [F,G,]2 | C,2 [F,G,=B,]2- | %28
 [F,G,B,]2 [F,G,=B,]2 | C,2 E,2 |[M:1/8] C, |] %31
V:3
 x4 | x4 | z2 G,2 | x4 | z2 G,2 | x4 | C4- | C2 z2 | x4 | F4- | F2 z2 | x4 | d4- | d2 z2 | z2 G,2 | %15
 x4 | z2 F,2 | x4 | z2 B,2 | z z/ c/ B>A | z2 G,2 | x4 | x4 | x4 | x4 | x4 | x4 | x4 | x4 | %29
 z2 G,2 |[M:1/8] x |] %31
V:4
 x4 | x4 | x4 | C,2 z2 | x4 | x4 | x4 | x4 | x4 | x4 | x4 | x4 | =B,,2 z2 | =B,,2 z2 | x4 | %15
 x3/2[K:treble] x5/2 | x4 | x3/2[K:treble] x5/2 | x4 | x4 | x4 | x[K:treble] x3 | x4 | x4 | x4 | %25
 x4 | x4 | x4 | x4 | x4 |[M:1/8] x |] %31
V:5
 x4 | x4 | x4 | x4 | x4 | x4 | x4 | x4 | x4 | x4 | A,2 z2 | x4 | x4 | G,2 z2 | x4 | x4 | x4 | x4 | %18
 x4 | x4 | x4 | x4 | x4 | x4 | x4 | x4 | x4 | x4 | x4 | x4 |[M:1/8] x |] %31
V:6
 x4 | x4 | x4 | x4 | x4 | x4 | x4 | x4 | x4 | x4 | x4 | x4 | z2 F,2- | F,2 z2 | x4 | x4 | x4 | x4 | %18
 x4 | x4 | x4 | x4 | x4 | x4 | x4 | x4 | x4 | x4 | x4 | x4 |[M:1/8] x |] %31

